plasma/desktoptheme/Arc-Color/widgets/containment-controls.svg

<?xml version="1.0" encoding="UTF-8"?>
<svg width="128" height="128" version="1" xmlns="http://www.w3.org/2000/svg">
 <defs>
  <style id="current-color-scheme" type="text/css">.ColorScheme-Background {color:#2f343f; } .ColorScheme-ButtonBackground { color:#444a58; } .ColorScheme-Highlight { color:#5c87cc; } .ColorScheme-Text { color:#d3dae3; } .ColorScheme-NegativeText { color:#f44336; } .ColorScheme-PositiveText { color:#4caf50; } .ColorScheme-NeutralText { color:#ff9800; }</style>
 </defs>
 <rect id="hint-stretch-borders" x="-10" width="5.221" height="5.403" fill="#023812"/>
 <g id="north-center" transform="translate(-152,-4)">
  <path class="ColorScheme-Background" d="m264 112v5h5v-5h-5z" fill="currentColor" opacity=".9"/>
 </g>
 <g id="north-top" transform="translate(-152,-5)">
  <path class="ColorScheme-Background" transform="translate(152,5)" d="m112 103v1 1 2h5v-2-1-1h-5z" fill="currentColor" opacity=".9"/>
  <path d="m264 107v1h5v-1h-5z" opacity=".2"/>
 </g>
 <g id="north-bottom" transform="translate(-152,-3)">
  <path class="ColorScheme-Background" transform="translate(152,3)" d="m112 114v3 1h5v-1-3h-5z" fill="currentColor" opacity=".9"/>
  <path d="m264 121v1h5v-1h-5z" opacity=".2"/>
 </g>
 <g id="south-center" transform="translate(-165,-4)">
  <path class="ColorScheme-Background" d="m264 112v5h5v-5h-5z" fill="currentColor" opacity=".9"/>
 </g>
 <g id="south-top" transform="translate(-165,-5)">
  <path class="ColorScheme-Background" transform="translate(165,5)" d="m99 103v1 1 2h5v-2-1-1h-5z" fill="currentColor" opacity=".9"/>
  <path d="m264 107v1h5v-1h-5z" opacity=".2"/>
 </g>
 <g id="south-bottom" transform="translate(-165,-3)">
  <path class="ColorScheme-Background" transform="translate(165,3)" d="m99 114v3 1h5v-1-3h-5z" fill="currentColor" opacity=".9"/>
  <path d="m264 121v1h5v-1h-5z" opacity=".2"/>
 </g>
 <g id="east-center" transform="matrix(0,-1,1,0,-16,334)">
  <path class="ColorScheme-Background" d="m264 112v5h5v-5h-5z" fill="currentColor" opacity=".9"/>
 </g>
 <g id="east-left" transform="matrix(0,-1,1,0,-17,334)">
  <path class="ColorScheme-Background" transform="matrix(0,1,-1,0,334,17)" d="m91 65v5h1 3v-5h-3-1z" fill="currentColor" opacity=".9"/>
  <path d="m264 107v1h5v-1h-5z" opacity=".2"/>
 </g>
 <g id="east-right" transform="matrix(0,-1,1,0,-15,334)">
  <path class="ColorScheme-Background" transform="matrix(0,1,-1,0,334,15)" d="m102 65v5h3 1v-5h-1-3z" fill="currentColor" opacity=".9"/>
  <path d="m264 121v1h5v-1h-5z" opacity=".2"/>
 </g>
 <g id="west-center" transform="matrix(0,-1,1,0,-16,347)">
  <path class="ColorScheme-Background" d="m264 112v5h5v-5h-5z" fill="currentColor" opacity=".9"/>
 </g>
 <g id="west-left" transform="matrix(0,-1,1,0,-17,347)">
  <path class="ColorScheme-Background" transform="matrix(0,1,-1,0,347,17)" d="m91 78v5h1 3v-5h-3-1z" fill="currentColor" opacity=".9"/>
  <path d="m264 107v1h5v-1h-5z" opacity=".2"/>
 </g>
 <g id="west-right" transform="matrix(0,-1,1,0,-15,347)">
  <path class="ColorScheme-Background" transform="matrix(0,1,-1,0,347,15)" d="m102 78v5h3 1v-5h-1-3z" fill="currentColor" opacity=".9"/>
  <path d="m264 121v1h5v-1h-5z" opacity=".2"/>
 </g>
 <g id="vertical-centerindicator" transform="translate(1,15)">
  <rect x="11" y="32" width="42" height="1" opacity=".2"/>
  <rect class="ColorScheme-Background" x="11" y="33" width="42" height="1" fill="currentColor" opacity=".9"/>
  <rect class="ColorScheme-Background" x="11" y="31" width="42" height="1" fill="currentColor" opacity=".9"/>
 </g>
 <g id="horizontal-centerindicator" transform="translate(-4,17)">
  <rect transform="rotate(-90)" x="-31" y="8" width="42" height="1" opacity=".2"/>
  <rect class="ColorScheme-Background" transform="rotate(-90)" x="-31" y="9" width="42" height="1" fill="currentColor" opacity=".9"/>
  <rect class="ColorScheme-Background" transform="rotate(-90)" x="-31" y="7" width="42" height="1" fill="currentColor" opacity=".9"/>
 </g>
 <g id="west-minslider" transform="translate(5.0312 68.003)">
  <g transform="translate(-405,100)">
   <path class="ColorScheme-Text" d="m419-89.222-1.375 1.4062-3.6562-3.6562 0.0312 7.4688h-2l-0.0312-7.4688-3.625 3.6562-1.375-1.4062 6.0312-6 6 6zm-4-8.7812c0 1.1046-0.89543 2-2 2s-2-0.89543-2-2 0.89543-2 2-2 2 0.89543 2 2z" fill="currentColor"/>
  </g>
 </g>
 <g id="north-offsetslider" transform="translate(37 108)">
  <g transform="translate(-385,98.003)">
   <path class="ColorScheme-Text" d="m387-90.215 1.3858 1.3851 3.6348-3.6349-0.0211 8.4614h2l0.0211-8.4614 3.6344 3.6349 1.3851-1.3851-6.0406-6.0009z" fill="currentColor"/>
  </g>
 </g>
 <g id="north-maxslider" transform="translate(6.9988 89.969)">
  <g transform="translate(-325,99.003)">
   <path class="ColorScheme-Text" d="m330.22-97.003-1.4062 1.375 3.6562 3.6562-7.4688-0.03125v2l7.4688 0.0312-3.6562 3.625 1.4062 1.375 6-6.0312-6-6zm8.7812 4c-1.1046 0-2 0.89543-2 2s0.89543 2 2 2 2-0.89543 2-2-0.89543-2-2-2z" fill="currentColor"/>
  </g>
 </g>
 <g id="east-offsetslider" transform="translate(5.0016 107.96)">
  <g transform="translate(-305,99.003)">
   <path class="ColorScheme-Text" d="m313.21-97.003-1.3851 1.3859 3.6349 3.6348-8.4614-0.0211v2l8.4614 0.0211-3.6349 3.6344 1.3851 1.3851 6.0009-6.0406z" fill="currentColor"/>
  </g>
 </g>
 <g id="east-minslider" transform="translate(22.031 68.003)">
  <g transform="translate(-405,100)">
   <path class="ColorScheme-Text" d="m419-89.222-1.375 1.4062-3.6562-3.6562 0.0312 7.4688h-2l-0.0312-7.4688-3.625 3.6562-1.375-1.4062 6.0312-6 6 6zm-4-8.7812c0 1.1046-0.89543 2-2 2s-2-0.89543-2-2 0.89543-2 2-2 2 0.89543 2 2z" fill="currentColor"/>
  </g>
 </g>
 <g id="west-maxslider" transform="matrix(1 0 0 -1 38.031 83.997)">
  <g transform="translate(-405,100)">
   <path class="ColorScheme-Text" d="m419-89.222-1.375 1.4062-3.6562-3.6562 0.0312 7.4688h-2l-0.0312-7.4688-3.625 3.6562-1.375-1.4062 6.0312-6 6 6zm-4-8.7812c0 1.1046-0.89543 2-2 2s-2-0.89543-2-2 0.89543-2 2-2 2 0.89543 2 2z" fill="currentColor"/>
  </g>
 </g>
 <g id="east-maxslider" transform="matrix(1 0 0 -1 55.031 83.997)">
  <g transform="translate(-405,100)">
   <path class="ColorScheme-Text" d="m419-89.222-1.375 1.4062-3.6562-3.6562 0.0312 7.4688h-2l-0.0312-7.4688-3.625 3.6562-1.375-1.4062 6.0312-6 6 6zm-4-8.7812c0 1.1046-0.89543 2-2 2s-2-0.89543-2-2 0.89543-2 2-2 2 0.89543 2 2z" fill="currentColor"/>
  </g>
 </g>
 <g id="south-maxslider" transform="translate(25.999 89.969)">
  <g transform="translate(-325,99.003)">
   <path class="ColorScheme-Text" d="m330.22-97.003-1.4062 1.375 3.6562 3.6562-7.4688-0.03125v2l7.4688 0.0312-3.6562 3.625 1.4062 1.375 6-6.0312-6-6zm8.7812 4c-1.1046 0-2 0.89543-2 2s0.89543 2 2 2 2-0.89543 2-2-0.89543-2-2-2z" fill="currentColor"/>
  </g>
 </g>
 <g id="north-minslider" transform="matrix(-1 0 0 1 61.001 89.969)">
  <g transform="translate(-325,99.003)">
   <path class="ColorScheme-Text" d="m330.22-97.003-1.4062 1.375 3.6562 3.6562-7.4688-0.03125v2l7.4688 0.0312-3.6562 3.625 1.4062 1.375 6-6.0312-6-6zm8.7812 4c-1.1046 0-2 0.89543-2 2s0.89543 2 2 2 2-0.89543 2-2-0.89543-2-2-2z" fill="currentColor"/>
  </g>
 </g>
 <g id="south-minslider" transform="matrix(-1 0 0 1 80.001 89.969)">
  <g transform="translate(-325,99.003)">
   <path class="ColorScheme-Text" d="m330.22-97.003-1.4062 1.375 3.6562 3.6562-7.4688-0.03125v2l7.4688 0.0312-3.6562 3.625 1.4062 1.375 6-6.0312-6-6zm8.7812 4c-1.1046 0-2 0.89543-2 2s0.89543 2 2 2 2-0.89543 2-2-0.89543-2-2-2z" fill="currentColor"/>
  </g>
 </g>
 <g id="west-offsetslider" transform="matrix(-1 0 0 1 37.211 107.96)">
  <g transform="translate(-305,99.003)">
   <path class="ColorScheme-Text" d="m313.21-97.003-1.3851 1.3859 3.6349 3.6348-8.4614-0.0211v2l8.4614 0.0211-3.6349 3.6344 1.3851 1.3851 6.0009-6.0406z" fill="currentColor"/>
  </g>
 </g>
 <g id="south-offsetslider" transform="matrix(1 0 0 -1 52 123.79)">
  <g transform="translate(-385,98.003)">
   <path class="ColorScheme-Text" d="m387-90.215 1.3858 1.3851 3.6348-3.6349-0.0211 8.4614h2l0.0211-8.4614 3.6344 3.6349 1.3851-1.3851-6.0406-6.0009z" fill="currentColor"/>
  </g>
 </g>
</svg>

<svg xmlns="http://www.w3.org/2000/svg" width="128" height="128" version="1">
<defs>
  <style id="current-color-scheme" type="text/css">
   .ColorScheme-Background {color:#2f343f; } .ColorScheme-ButtonBackground { color:#444a58; } .ColorScheme-Highlight { color:#5c87cc; } .ColorScheme-Text { color:#d3dae3; } .ColorScheme-NegativeText { color:#f44336; } .ColorScheme-PositiveText { color:#4caf50; } .ColorScheme-NeutralText { color:#ff9800; }
  </style>
 </defs>
 <rect id="hint-stretch-borders" width="5.221" height="5.403" x="-10" y="0" style="fill:#023812"/>
 <g id="north-center" transform="translate(-152,-4)">
  <path d="M 264,112 L 264,117 L 269,117 L 269,112 L 264,112 z" style="opacity:0.9;fill:currentColor" class="ColorScheme-Background"/>
 </g>
 <g id="north-top" transform="translate(-152,-5)">
  <path transform="translate(152,5)" d="M 112 103 L 112 104 L 112 105 L 112 107 L 117 107 L 117 105 L 117 104 L 117 103 L 112 103 z" style="opacity:0.9;fill:currentColor" class="ColorScheme-Background"/>
  <path d="M 264,107 L 264,108 L 269,108 L 269,107 L 264,107 z" style="opacity:0.2"/>
 </g>
 <g id="north-bottom" transform="translate(-152,-3)">
  <path transform="translate(152,3)" d="M 112 114 L 112 117 L 112 118 L 117 118 L 117 117 L 117 114 L 112 114 z" style="opacity:0.9;fill:currentColor" class="ColorScheme-Background"/>
  <path d="M 264,121 L 264,122 L 269,122 L 269,121 L 264,121 z" style="opacity:0.2"/>
 </g>
 <g id="south-center" transform="translate(-165,-4)">
  <path d="m 264,112 0,5 5,0 0,-5 -5,0 z" style="opacity:0.9;fill:currentColor" class="ColorScheme-Background"/>
 </g>
 <g id="south-top" transform="translate(-165,-5)">
  <path transform="translate(165,5)" d="M 99 103 L 99 104 L 99 105 L 99 107 L 104 107 L 104 105 L 104 104 L 104 103 L 99 103 z" style="opacity:0.9;fill:currentColor" class="ColorScheme-Background"/>
  <path d="m 264,107 0,1 5,0 0,-1 -5,0 z" style="opacity:0.2"/>
 </g>
 <g id="south-bottom" transform="translate(-165,-3)">
  <path transform="translate(165,3)" d="M 99 114 L 99 117 L 99 118 L 104 118 L 104 117 L 104 114 L 99 114 z" style="opacity:0.9;fill:currentColor" class="ColorScheme-Background"/>
  <path d="m 264,121 0,1 5,0 0,-1 -5,0 z" style="opacity:0.2"/>
 </g>
 <g id="east-center" transform="matrix(0,-1,1,0,-16,334)">
  <path d="m 264,112 0,5 5,0 0,-5 -5,0 z" style="opacity:0.9;fill:currentColor" class="ColorScheme-Background"/>
 </g>
 <g id="east-left" transform="matrix(0,-1,1,0,-17,334)">
  <path transform="matrix(0,1,-1,0,334,17)" d="M 91 65 L 91 70 L 92 70 L 95 70 L 95 65 L 92 65 L 91 65 z" style="opacity:0.9;fill:currentColor" class="ColorScheme-Background"/>
  <path d="m 264,107 0,1 5,0 0,-1 -5,0 z" style="opacity:0.2"/>
 </g>
 <g id="east-right" transform="matrix(0,-1,1,0,-15,334)">
  <path transform="matrix(0,1,-1,0,334,15)" d="M 102 65 L 102 70 L 105 70 L 106 70 L 106 65 L 105 65 L 102 65 z" style="opacity:0.9;fill:currentColor" class="ColorScheme-Background"/>
  <path d="m 264,121 0,1 5,0 0,-1 -5,0 z" style="opacity:0.2"/>
 </g>
 <g id="west-center" transform="matrix(0,-1,1,0,-16,347)">
  <path d="m 264,112 0,5 5,0 0,-5 -5,0 z" style="opacity:0.9;fill:currentColor" class="ColorScheme-Background"/>
 </g>
 <g id="west-left" transform="matrix(0,-1,1,0,-17,347)">
  <path transform="matrix(0,1,-1,0,347,17)" d="M 91 78 L 91 83 L 92 83 L 95 83 L 95 78 L 92 78 L 91 78 z" style="opacity:0.9;fill:currentColor" class="ColorScheme-Background"/>
  <path d="m 264,107 0,1 5,0 0,-1 -5,0 z" style="opacity:0.2"/>
 </g>
 <g id="west-right" transform="matrix(0,-1,1,0,-15,347)">
  <path transform="matrix(0,1,-1,0,347,15)" d="M 102 78 L 102 83 L 105 83 L 106 83 L 106 78 L 105 78 L 102 78 z" style="opacity:0.9;fill:currentColor" class="ColorScheme-Background"/>
  <path d="m 264,121 0,1 5,0 0,-1 -5,0 z" style="opacity:0.2"/>
 </g>
 <g id="vertical-centerindicator" transform="translate(1,15)">
  <rect width="42" height="1" x="11" y="32" style="opacity:0.2"/>
  <rect width="42" height="1" x="11" y="33" style="opacity:0.9;fill:currentColor" class="ColorScheme-Background"/>
  <rect width="42" height="1" x="11" y="31" style="opacity:0.9;fill:currentColor" class="ColorScheme-Background"/>
 </g>
 <g id="horizontal-centerindicator" transform="translate(-4,17)">
  <rect width="42" height="1" x="-31" y="8" transform="matrix(0,-1,1,0,0,0)" style="opacity:0.2"/>
  <rect width="42" height="1" x="-31" y="9" transform="matrix(0,-1,1,0,0,0)" style="opacity:0.9;fill:currentColor" class="ColorScheme-Background"/>
  <rect width="42" height="1" x="-31" y="7" transform="matrix(0,-1,1,0,0,0)" style="opacity:0.9;fill:currentColor" class="ColorScheme-Background"/>
 </g>
 <g id="west-minslider" transform="translate(5.0312,68.003199)">
  <g transform="translate(-405,100)">
   <path d="m 419,-89.222 -1.375,1.4062 -3.6562,-3.6562 0.0312,7.4688 -2,0 -0.0312,-7.4688 -3.625,3.6562 -1.375,-1.4062 6.0312,-6 6,6 z m -4,-8.7812 c 0,1.1046 -0.89543,2 -2,2 -1.10457,0 -2,-0.89543 -2,-2 0,-1.10457 0.89543,-2 2,-2 1.10457,0 2,0.89543 2,2 z" style="fill:currentColor" class="ColorScheme-Text"/>
  </g>
 </g>
 <g id="north-offsetslider" transform="translate(37,108.0004)">
  <g transform="translate(-385,98.003)">
   <path d="m 387,-90.215 1.3858,1.3851 3.6348,-3.6349 -0.0211,8.4614 2,0 0.0211,-8.4614 3.6344,3.6349 1.3851,-1.3851 -6.0406,-6.0009 z" style="fill:currentColor" class="ColorScheme-Text"/>
  </g>
 </g>
 <g id="north-maxslider" transform="translate(6.9988,89.968849)">
  <g transform="translate(-325,99.003)">
   <path d="m 330.22,-97.003 -1.4062,1.375 3.6562,3.6562 -7.4688,-0.03125 0,2 7.4688,0.0312 -3.6562,3.625 1.4062,1.375 6,-6.0312 -6,-6 z m 8.7812,4 c -1.1046,0 -2,0.89543 -2,2 0,1.10457 0.89543,2 2,2 1.10457,0 2,-0.89543 2,-2 0,-1.10457 -0.89543,-2 -2,-2 z" style="fill:currentColor" class="ColorScheme-Text"/>
  </g>
 </g>
 <g id="east-offsetslider" transform="translate(5.0016,107.9598)">
  <g transform="translate(-305,99.003)">
   <path d="m 313.21,-97.003 -1.3851,1.3859 3.6349,3.6348 -8.4614,-0.0211 0,2 8.4614,0.0211 -3.6349,3.6344 1.3851,1.3851 6.0009,-6.0406 z" style="fill:currentColor" class="ColorScheme-Text"/>
  </g>
 </g>
 <g id="east-minslider" transform="translate(22.0312,68.003199)">
  <g transform="translate(-405,100)">
   <path d="m 419,-89.222 -1.375,1.4062 -3.6562,-3.6562 0.0312,7.4688 -2,0 -0.0312,-7.4688 -3.625,3.6562 -1.375,-1.4062 6.0312,-6 6,6 z m -4,-8.7812 c 0,1.1046 -0.89543,2 -2,2 -1.10457,0 -2,-0.89543 -2,-2 0,-1.10457 0.89543,-2 2,-2 1.10457,0 2,0.89543 2,2 z" style="fill:currentColor" class="ColorScheme-Text"/>
  </g>
 </g>
 <g id="west-maxslider" transform="matrix(1,0,0,-1,38.0312,83.996799)">
  <g transform="translate(-405,100)">
   <path d="m 419,-89.222 -1.375,1.4062 -3.6562,-3.6562 0.0312,7.4688 -2,0 -0.0312,-7.4688 -3.625,3.6562 -1.375,-1.4062 6.0312,-6 6,6 z m -4,-8.7812 c 0,1.1046 -0.89543,2 -2,2 -1.10457,0 -2,-0.89543 -2,-2 0,-1.10457 0.89543,-2 2,-2 1.10457,0 2,0.89543 2,2 z" style="fill:currentColor" class="ColorScheme-Text"/>
  </g>
 </g>
 <g id="east-maxslider" transform="matrix(1,0,0,-1,55.0312,83.996799)">
  <g transform="translate(-405,100)">
   <path d="m 419,-89.222 -1.375,1.4062 -3.6562,-3.6562 0.0312,7.4688 -2,0 -0.0312,-7.4688 -3.625,3.6562 -1.375,-1.4062 6.0312,-6 6,6 z m -4,-8.7812 c 0,1.1046 -0.89543,2 -2,2 -1.10457,0 -2,-0.89543 -2,-2 0,-1.10457 0.89543,-2 2,-2 1.10457,0 2,0.89543 2,2 z" style="fill:currentColor" class="ColorScheme-Text"/>
  </g>
 </g>
 <g id="south-maxslider" transform="translate(25.9988,89.968849)">
  <g transform="translate(-325,99.003)">
   <path d="m 330.22,-97.003 -1.4062,1.375 3.6562,3.6562 -7.4688,-0.03125 0,2 7.4688,0.0312 -3.6562,3.625 1.4062,1.375 6,-6.0312 -6,-6 z m 8.7812,4 c -1.1046,0 -2,0.89543 -2,2 0,1.10457 0.89543,2 2,2 1.10457,0 2,-0.89543 2,-2 0,-1.10457 -0.89543,-2 -2,-2 z" style="fill:currentColor" class="ColorScheme-Text"/>
  </g>
 </g>
 <g id="north-minslider" transform="matrix(-1,0,0,1,61.0012,89.968849)">
  <g transform="translate(-325,99.003)">
   <path d="m 330.22,-97.003 -1.4062,1.375 3.6562,3.6562 -7.4688,-0.03125 0,2 7.4688,0.0312 -3.6562,3.625 1.4062,1.375 6,-6.0312 -6,-6 z m 8.7812,4 c -1.1046,0 -2,0.89543 -2,2 0,1.10457 0.89543,2 2,2 1.10457,0 2,-0.89543 2,-2 0,-1.10457 -0.89543,-2 -2,-2 z" style="fill:currentColor" class="ColorScheme-Text"/>
  </g>
 </g>
 <g id="south-minslider" transform="matrix(-1,0,0,1,80.0012,89.968849)">
  <g transform="translate(-325,99.003)">
   <path d="m 330.22,-97.003 -1.4062,1.375 3.6562,3.6562 -7.4688,-0.03125 0,2 7.4688,0.0312 -3.6562,3.625 1.4062,1.375 6,-6.0312 -6,-6 z m 8.7812,4 c -1.1046,0 -2,0.89543 -2,2 0,1.10457 0.89543,2 2,2 1.10457,0 2,-0.89543 2,-2 0,-1.10457 -0.89543,-2 -2,-2 z" style="fill:currentColor" class="ColorScheme-Text"/>
  </g>
 </g>
 <g id="west-offsetslider" transform="matrix(-1,0,0,1,37.2109,107.9598)">
  <g transform="translate(-305,99.003)">
   <path d="m 313.21,-97.003 -1.3851,1.3859 3.6349,3.6348 -8.4614,-0.0211 0,2 8.4614,0.0211 -3.6349,3.6344 1.3851,1.3851 6.0009,-6.0406 z" style="fill:currentColor" class="ColorScheme-Text"/>
  </g>
 </g>
 <g id="south-offsetslider" transform="matrix(1,0,0,-1,52,123.7871)">
  <g transform="translate(-385,98.003)">
   <path d="m 387,-90.215 1.3858,1.3851 3.6348,-3.6349 -0.0211,8.4614 2,0 0.0211,-8.4614 3.6344,3.6349 1.3851,-1.3851 -6.0406,-6.0009 z" style="fill:currentColor" class="ColorScheme-Text"/>
  </g>
 </g>
</svg>
